!!!!SEGMENT: pl-gd--ee-1638--005-013_marenzio-luca--il-primo-libro-de-madrigali-spirituali-a-cinque-voci-signor-cui-gia-fu-poco.krn
!!!cenid: 15xx:966
!!!COM: Marenzio, Luca
!!!COM-rismID: pe30003955
!!!CDT: ~1553-1599/08/22
!!!CNT: Italian
!!!GTL: Il Primo libro de madrigali spirituali a cinque voci
!!!OTL: Signor cui gia fu poco
!!!OMV: 013
!!!PDT: 1588
!!!AGN:
!!!SMS-siglum: PL-GD
!!!SMS-shelfmark: Ee 1638
!!!SMS-shelfwork: 005-013 G
!!!SMS-variant:
!!!SMS-altvar:
!!!NIFC-rismSourceID: 1001202747
!!!NIFC-rismChildID: 990039269
!!!NIFC-islandoraID: pl-gd:57883
!!!URL-pdf-islandora: https://repozytorium.nifc.pl/islandora/object/pl-gd%3A57883/datastream/PDF/view
!!!URL-scan: https://polish.musicsources.pl/pl/lokalizacje/galeria/klocki-introligatorskie/655 @EN{Scan on Polish Music Sources Website} @PL{Skany w portalu Dziedzictwo Muzyki Polskiej w otwartym dostępie}
!!!ONB-nifc: UWAGA: zbiór na stronach: Canto: s. 666-677, Alto: s. 514-525, Tenore: s. 362-373, Bassus: s. 210-221, Quinto: s. 58-69. Uwaga: utwory podzielone wg tytułów w spisach treści dostępnych na końcu każdej księgi głosowej.
!!!AIN: 1 alto 1 bass 1 soprn 2 tenor
!!!key: d:dor
**kern	**text	**mod-text	**kern	**text	**mod-text	**kern	**text	**mod-text	**kern	**text	**mod-text	**kern	**text	**mod-text
*part5	*part5	*part5	*part4	*part4	*part4	*part3	*part3	*part3	*part2	*part2	*part2	*part1	*part1	*part1
*staff5	*staff5	*staff5	*staff4	*staff4	*staff4	*staff3	*staff3	*staff3	*staff2	*staff2	*staff2	*staff1	*staff1	*staff1
*I"BASSO	*	*	*I"TENORE	*	*	*I"QVINTO	*	*	*I"ALTO	*	*	*I"CANTO	*	*
*mI"Basso	*	*	*mI"Tenore	*	*	*mI"Quinto	*	*	*mI"Alto	*	*	*mI"Soprano	*	*
*I'B	*	*	*I'T	*	*	*I'V 5	*	*	*I'A	*	*	*I'S	*	*
*Ibass	*	*	*Itenor	*	*	*Itenor	*	*	*Ialto	*	*	*Isoprn	*	*
*ICvox	*	*	*ICvox	*	*	*ICvox	*	*	*ICvox	*	*	*ICvox	*	*
*clefF3	*	*	*clefC3	*	*	*clefC3	*	*	*clefC2	*	*	*clefG2	*	*
*mclefF4	*	*	*mclefGv2	*	*	*mclefGv2	*	*	*mclefG2	*	*	*	*	*
*k[]	*	*	*k[]	*	*	*k[]	*	*	*k[]	*	*	*k[]	*	*
*d:dor	*	*	*d:dor	*	*	*d:dor	*	*	*d:dor	*	*	*d:dor	*	*
*M2/1	*	*	*M2/1	*	*	*M2/1	*	*	*M2/1	*	*	*M2/1	*	*
*met(C|)	*	*	*met(C|)	*	*	*met(C|)	*	*	*met(C|)	*	*	*met(C|)	*	*
*mmet(c|)	*	*	*mmet(c|)	*	*	*mmet(c|)	*	*	*mmet(c|)	*	*	*mmet(c|)	*	*
=1-	=1-	=1-	=1-	=1-	=1-	=1-	=1-	=1-	=1-	=1-	=1-	=1-	=1-	=1-
*xywh-#216:4655,559,3348,920	*	*	*xywh-#368:4732,555,3354,805	*	*	*xywh-#64:4495,594,3368,811	*	*	*xywh-#520:4613,508,3369,766	*	*	*xywh-#672:4719,492,3372,780	*	*
00r	.	.	0r	.	.	00r	.	.	1r	.	.	1a	SI-	Si-
.	.	.	.	.	.	.	.	.	1d	SI-	Si-	1dd	-gnor	-gnor
=2-	=2-	=2-	=2-	=2-	=2-	=2-	=2-	=2-	=2-	=2-	=2-	=2-	=2-	=2-
.	.	.	1r	.	.	.	.	.	1g	-gnor	-gnor	2r	.	.
.	.	.	.	.	.	.	.	.	.	.	.	2b\	cui	cui
.	.	.	1A	SI-	Si-	.	.	.	2r	.	.	4cc#X\	già	già
.	.	.	.	.	.	.	.	.	.	.	.	2dd\	fu	fu
.	.	.	.	.	.	.	.	.	2e/	cui	cui	.	.	.
.	.	.	.	.	.	.	.	.	.	.	.	4cc#X\	po-	po-
=3-	=3-	=3-	=3-	=3-	=3-	=3-	=3-	=3-	=3-	=3-	=3-	=3-	=3-	=3-
1D	SI-	Si-	1d	-gnor	-gnor	2r	.	.	4f#X\	già	già	2dd\	-co	-co
.	.	.	.	.	.	.	.	.	2g\	fu	fu	.	.	.
.	.	.	.	.	.	1d	SI-	Si-	.	.	.	2a/	For-	for-
.	.	.	.	.	.	.	.	.	4f#X\	po-	po-	.	.	.
1G	-gnor	-gnor	2r	.	.	.	.	.	2g\	-co	-co	2b\	-mar	-mar
.	.	.	2B/	cui	cui	2g\	-gnor	-gnor	2d/	For-	for-	2b\	i	i
=4-	=4-	=4-	=4-	=4-	=4-	=4-	=4-	=4-	=4-	=4-	=4-	=4-	=4-	=4-
2r	.	.	4c#X/	già	già	2r	.	.	2a\	-mar	-mar	1ee	cie-	cie-
.	.	.	2d\	fu	fu	.	.	.	.	.	.	.	.	.
2A\	cui	cui	.	.	.	2e\	cui	cui	2a\	i	i	.	.	.
.	.	.	4c#X/	po-	po-	.	.	.	.	.	.	.	.	.
2D/	già	già	2d\	-co	-co	4f#X\	già	già	1a	cie-	cie-	0dd	-li	-li
.	.	.	.	.	.	2g\	fu	fu	.	.	.	.	.	.
2D/	fu	fu	2A/	For-	for-	.	.	.	.	.	.	.	.	.
.	.	.	.	.	.	4f#X\	po-	po-	.	.	.	.	.	.
=5-	=5-	=5-	=5-	=5-	=5-	=5-	=5-	=5-	=5-	=5-	=5-	=5-	=5-	=5-
1G	po-	po-	2B/	-mar	-mar	2g\	-co	-co	2d/	-li	-li	.	.	.
.	.	.	2B/	i	i	2d\	For-	for-	1g	For-	for-	.	.	.
2C/	-co	-co	1g	cie-	cie-	2e\	-mar	-mar	.	.	.	2r	.	.
!	!	!	!	!	!	!	!	!	!LO:SIC:v:t=custos cc	!	!	!LO:SIC:v:t=custos ee	!	!
2c\	For-	for-	.	.	.	1e\	i	i	2cc\	-mar	-mar	2ee\	For-	for-
!	!	!	!	!	!	!	!	!	!LO:LB:g=original	!	!	!LO:LB:g=original	!	!
=6-	=6-	=6-	=6-	=6-	=6-	=6-	=6-	=6-	=6-	=6-	=6-	=6-	=6-	=6-
*	*	*	*	*	*	*	*	*	*xywh-#520:4570,1102,3380,702	*	*	*xywh-#672:4647,1164,3384,648	*	*
2A\	-mar	-mar	1a	-li	-li	.	.	.	1cc	i	i	2ee\	-mar	-mar
2A\	i	i	.	.	.	2.a\	cie-	cie-	.	.	.	2ee\	i	i
1d	cie-	cie-	1r	.	.	.	.	.	1a	cie-	cie-	1ff	cie-	cie-
.	.	.	.	.	.	4g\	.	.	.	.	.	.	.	.
!	!	!	!	!	!	!LO:SIC:v:t=custos g	!	!	!	!	!	!	!	!
.	.	.	.	.	.	2fny\	.	.	.	.	.	.	.	.
!	!	!	!	!	!	!LO:LB:g=original	!	!	!	!	!	!	!	!
=7-	=7-	=7-	=7-	=7-	=7-	=7-	=7-	=7-	=7-	=7-	=7-	=7-	=7-	=7-
*	*	*	*	*	*	*xywh-#64:4507,1260,3344,666	*	*	*	*	*	*	*	*
!	!	!	!LO:SIC:v:t=custos g	!	!	!	!	!	!	!	!	!	!	!
2c\	-li e in-	-li_e_in-	0r	.	.	2g\	-li e	-li_e_in-	2cc\	-li e in	-li_e_in-	2ee\	-li e	-li_e_in-
!LO:SIC:v:t=custos G	!	!	!	!	!	!	!	!	!	!	!	!	!	!
1c	-fie-	-fie-	.	.	.	1g	in-	-fie-	1cc	ſie-	-ſie-	1ee	in-	-ſie-
!LO:LB:g=original	!	!	!	!	!	!	!	!	!	!	!	!	!	!
*xywh-#216:4645,1237,3379,718	*	*	*	*	*	*	*	*	*	*	*	*	*	*
4G\	-me	-me	.	.	.	4g\	-fie-	-me	4b\	-me	-me	4dd\	-ſie-	-me
4A\	spie-	spie-	.	.	.	4e\	-me	spie-	4a\	spie-	spie-	4ccny\	-me	spie-
!	!	!	!LO:LB:g=original	!	!	!	!	!	!	!	!	!	!	!
=8-	=8-	=8-	=8-	=8-	=8-	=8-	=8-	=8-	=8-	=8-	=8-	=8-	=8-	=8-
*	*	*	*xywh-#368:4721,1198,3310,675	*	*	*	*	*	*	*	*	*	*	*
1E	-gar	-gar	2r	.	.	4.e\	spie-	-gar	2g\	-gar	-gar	2b/	Spie-	-gar
!	!	!	!	!	!	!LO:SIC:s=8dL	!	!	!	!	!	!	!	!
.	.	.	.	.	.	8d\	-gar	.	.	.	.	.	.	.
!	!	!	!LO:SIC:s=8gL	!	!	!	!	!	!	!	!	!LO:SIC:s=8eeL	!	!
.	.	.	8g\	Pa-	l'a-	8e\	.	.	2r	.	.	8ee\	-gar	l'a-
!	!	!	!	!	!	!LO:SIC:s=8fJ	!	!	!	!	!	!	!	!
.	.	.	8f\	.	.	8f\	.	.	.	.	.	8dd\	l'a-	.
.	.	.	8e\	.	.	4g\	.	.	.	.	.	8cc\	.	.
!	!	!	!LO:SIC:s=8dJ	!	!	!	!	!	!	!	!	!LO:SIC:s=8bJ	!	!
.	.	.	8d\	.	.	.	.	.	.	.	.	8b\	.	.
!	!	!	!	!	!	!	!	!	!LO:SIC:s=8ccL	!	!	!	!	!
1F	l'a-	l'a-	4cny/	.	.	2f\	l'a-	l'a-	8cc\	l'a-	l'a-	4a/	.	.
.	.	.	.	.	.	.	.	.	8b\	.	.	.	.	.
.	.	.	4c/	-ria	-ria	.	.	.	8a\	.	.	4a/	-ria	-ria
!	!	!	!	!	!	!	!	!	!LO:SIC:s=8gJ	!	!	!	!	!
.	.	.	.	.	.	.	.	.	8g\	.	.	.	.	.
!	!	!	!LO:SIC:s=8fL	!	!	!	!	!	!	!	!	!LO:SIC:s=8aaL	!	!
.	.	.	8f\	l'a-	l'a-	2a\	-ria	-ria	4fny\	.	.	8aa\	l'a-	l'a-
.	.	.	8e\	.	.	.	.	.	.	.	.	8gg\	.	.
.	.	.	8d\	.	.	.	.	.	4a\	-ria	-ria	8ff\	.	.
!	!	!	!LO:SIC:s=8cJ	!	!	!	!	!	!	!	!	!LO:SIC:s=8eeJ	!	!
.	.	.	8c\	.	.	.	.	.	.	.	.	8ee\	.	.
=9-	=9-	=9-	=9-	=9-	=9-	=9-	=9-	=9-	=9-	=9-	=9-	=9-	=9-	=9-
4G\	-ria	-ria	4B/	.	.	4r	.	.	2r	.	.	4dd\	.	.
4G\	la	la	2g\	-ria	-ria	4d\	la	la	.	.	.	4b/	-ria	-ria
!LO:SIC:s=8cL	!	!	!	!	!	!LO:SIC:s=8eL	!	!	!	!	!	!	!	!
8c\	ter-	ter-	.	.	.	8e\	ter-	ter-	4r	.	.	2.cc\	la	la
8B\	.	.	.	.	.	8d\	.	.	.	.	.	.	.	.
8A\	.	.	4a\	la	la	8c/	.	.	4e/	la	la	.	.	.
!LO:SIC:s=8GJ	!	!	!	!	!	!LO:SIC:s=8BJ	!	!	!	!	!	!	!	!
8G\	.	.	.	.	.	8B/	.	.	.	.	.	.	.	.
!	!	!	!LO:SIC:s=8aL	!	!	!	!	!	!	!	!	!	!	!
4F/	.	.	8a\	ter-	ter-	4A/	.	.	4.f\	ter-	ter-	.	.	.
.	.	.	8g\	.	.	.	.	.	.	.	.	.	.	.
4D/	-ra'l	-ra_il	8f\	.	.	4f\	-ra'l	-ra_il	.	.	.	2dd\	ter-	ter-
!	!	!	!LO:SIC:s=8eJ	!	!	!	!	!	!	!	!	!	!	!
.	.	.	8e\	.	.	.	.	.	8g\	.	.	.	.	.
!LO:SIC:s=8dL	!	!	!	!	!	!LO:SIC:s=8fL	!	!	!	!	!	!	!	!
8d\	ma-	ma-	4d\	.	.	8f\	ma-	ma-	4a\	.	.	.	.	.
8c\	.	.	.	.	.	8e\	.	.	.	.	.	.	.	.
!	!	!	!	!	!	!	!	!	!LO:N:acc=#	!	!	!	!	!
!	!	!	!	!	!	!	!	!	!LO:SIC:s=4b	!	!	!	!	!
8B\	.	.	4.G/	-ra il	-ra_il	8d\	.	.	4bn\	-ra_il	-ra_il	2dd\	-ra'l	-ra_il
!LO:SIC:s=8AJ	!	!	!	!	!	!LO:SIC:s=8cJ	!	!	!	!	!	!	!	!
8A\	.	.	.	.	.	8c\	.	.	.	.	.	.	.	.
=10-	=10-	=10-	=10-	=10-	=10-	=10-	=10-	=10-	=10-	=10-	=10-	=10-	=10-	=10-
!	!	!	!	!	!	!	!	!	!LO:SIC:v:t=custos g	!	!	!	!	!
4G\	.	.	.	.	.	4B/	.	.	2b\	ma-	ma-	.	.	.
!	!	!	!LO:SIC:s=8AJ	!	!	!	!	!	!	!	!	!	!	!
.	.	.	8A/	.	.	.	.	.	.	.	.	.	.	.
!	!	!	!	!	!	!LO:SIC:v:t=custos g	!	!	!	!	!	!LO:SIC:v:t=custos ee	!	!
4E/	-re e'l	-re_e'l	4B/	.	.	4g\	-re e'l	-re_e'l	.	.	.	2ee\	ma-	ma-
!	!	!	!	!	!	!LO:LB:g=original	!	!	!LO:LB:g=original	!	!	!	!	!
!LO:SIC:s=8eL	!	!	!	!	!	!LO:SIC:s=8gL	!	!	!	!	!	!	!	!
*	*	*	*	*	*	*xywh-#64:4507,1793,3344,751	*	*	*xywh-#520:4580,1707,3391,712	*	*	*	*	*
8e\	fo-	fo-	2c/	mar	mar	8g\	fo-	fo-	4g\	-re e'l	-re_e'l	.	.	.
8d\	.	.	.	.	.	8f\	.	.	.	.	.	.	.	.
!	!	!	!	!	!	!	!	!	!	!	!	!LO:LB:g=original	!	!
*	*	*	*	*	*	*	*	*	*	*	*	*xywh-#672:4683,1740,3420,660	*	*
8c\	.	.	.	.	.	8e\	.	.	4.cc\	fo-	fo-	2ee\	-re e'l	-re_e'l
!LO:SIC:s=8BJ	!	!	!	!	!	!LO:SIC:s=8dJ	!	!	!	!	!	!	!	!
8B\	.	.	.	.	.	8d\	.	.	.	.	.	.	.	.
!LO:SIC:s=8AL	!	!	!	!	!	!	!	!	!	!	!	!	!	!
8A\	.	.	4e\	e'l	e'l	2c/	.	.	.	.	.	.	.	.
!LO:SIC:v:t=custos F	!	!	!	!	!	!	!	!	!LO:SIC:s=8bL	!	!	!	!	!
8G\	.	.	.	.	.	.	.	.	8b\	.	.	.	.	.
!LO:LB:g=original	!	!	!	!	!	!	!	!	!	!	!	!	!	!
*xywh-#216:4615,1733,3399,779	*	*	*	*	*	*	*	*	*	*	*	*	*	*
8F/	.	.	4.A/	fo-	fo-	.	.	.	8a\	.	.	2ff\	fo-	fo-
!LO:SIC:s=8EJ	!	!	!	!	!	!	!	!	!LO:SIC:s=8gJ	!	!	!	!	!
8E/	.	.	.	.	.	.	.	.	8g\	.	.	.	.	.
4D/	.	.	.	.	.	4F/	-co	-co	1.a\	.	.	.	.	.
!	!	!	!LO:SIC:s=8BL	!	!	!	!	!	!	!	!	!	!	!
.	.	.	8B/	.	.	.	.	.	.	.	.	.	.	.
!LO:SIC:s=8CL	!	!	!	!	!	!	!	!	!	!	!	!LO:SIC:s=8eeL	!	!
8C/	.	.	8c\	.	.	4A/	e'l	e'l	.	.	.	8ee\	.	.
!	!	!	!LO:SIC:v:t=custos e	!	!	!	!	!	!	!	!	!	!	!
!LO:SIC:s=8BBJ	!	!	!LO:SIC:s=8dJ	!	!	!	!	!	!	!	!	!LO:SIC:s=8ddJ	!	!
8BB/	.	.	8d\	.	.	.	.	.	.	.	.	8dd\	.	.
!	!	!	!LO:LB:g=original	!	!	!	!	!	!	!	!	!	!	!
=11-	=11-	=11-	=11-	=11-	=11-	=11-	=11-	=11-	=11-	=11-	=11-	=11-	=11-	=11-
*	*	*	*xywh-#368:4732,1742,3310,675	*	*	*	*	*	*	*	*	*	*	*
4AA/	.	.	1e	.	.	1A	fo-	fo-	.	.	.	4cc#X\	.	.
4GG/	.	.	.	.	.	.	.	.	.	.	.	2dd\	.	.
2AA/	.	.	.	.	.	.	.	.	.	.	.	.	.	.
.	.	.	.	.	.	.	.	.	.	.	.	4cc#X\	.	.
1D	-co	-co	1d	-co	-co	1A	-co	-co	1f	-co	-co	1dd	-co	-co
=12-	=12-	=12-	=12-	=12-	=12-	=12-	=12-	=12-	=12-	=12-	=12-	=12-	=12-	=12-
1d	L'al-	l'al-	0r	.	.	2r	.	.	1a	L'al-	l'al-	2r	.	.
.	.	.	.	.	.	1d	L'al-	l'al-	.	.	.	1ff	L'al-	l'al-
1A	-ma	-ma	.	.	.	.	.	.	1a	-ma	-ma	.	.	.
.	.	.	.	.	.	2c#X/	-ma	-ma	.	.	.	2ee\	-ma	-ma
=13-	=13-	=13-	=13-	=13-	=13-	=13-	=13-	=13-	=13-	=13-	=13-	=13-	=13-	=13-
00r	.	.	1a	L'al-	l'al-	0r	.	.	2r	.	.	2r	.	.
.	.	.	.	.	.	.	.	.	1a	L'al-	l'al-	1ccny	L'al-	l'al-
.	.	.	1e	-ma	-ma	.	.	.	.	.	.	.	.	.
.	.	.	.	.	.	.	.	.	2g#X\	-ma	-ma	2b/	-ma	-ma
=14-	=14-	=14-	=14-	=14-	=14-	=14-	=14-	=14-	=14-	=14-	=14-	=14-	=14-	=14-
.	.	.	2A/	che	che	2e\	che	che	2a\	che	che	2cc#X\	che	che
.	.	.	1A	plo-	plo-	1e	pl-	pl-	1a	plo-	plo-	1cc#	plo-	plo-
.	.	.	2d\	-ra e	-ra_e	2f#X\	-ra e	-ra_e	2a\	-ra e	-ra_e	2dd\	-ra e	-ra_e
=15-	=15-	=15-	=15-	=15-	=15-	=15-	=15-	=15-	=15-	=15-	=15-	=15-	=15-	=15-
00r	.	.	1B	gem-	ge-	1f#yX	gem-	ge-	1b	gem-	ge-	1dd#X	gem-	ge-
.	.	.	1B	-me	-me	1f#	-me	-me	1b	-me	-me	1dd#	-me	-me
=16-	=16-	=16-	=16-	=16-	=16-	=16-	=16-	=16-	=16-	=16-	=16-	=16-	=16-	=16-
.	.	.	2e\	Ne	ne	2g\	Ne	ne	2b\	Ne	ne	2ee\	Ne	ne
.	.	.	1e	le	le	1g	le	le	1b	le	le	1ee	le	le
.	.	.	2B/	ſue an-	ſue_an-	2g\	ſue an-	ſue_an-	2b\	ſue an-	ſue_an-	1ddny\	ſue an-	ſue_an-
=17-	=17-	=17-	=17-	=17-	=17-	=17-	=17-	=17-	=17-	=17-	=17-	=17-	=17-	=17-
!	!	!	!	!	!	!LO:SIC:v:t=custos d	!	!	!LO:SIC:v:t=custos g	!	!	!	!	!
00r	.	.	1c	-go-	-go-	1e	-go-	-go-	1gny	-go-	-go-	.	.	.
.	.	.	.	.	.	.	.	.	.	.	.	1ccny	-go-	-go-
!	!	!	!	!	!	!LO:LB:g=original	!	!	!LO:LB:g=original	!	!	!	!	!
*	*	*	*	*	*	*xywh-#64:4483,2278,3392,751	*	*	*xywh-#520:4602,2203,3380,734	*	*	*	*	*
.	.	.	1G	-ſc'eſ-	-ſcie_e-	1d	-ſc' eſ-	-ſcie_e-	1g	-ſc'eſ-	-ſcie_e-	.	.	.
!	!	!	!	!	!	!	!	!	!	!	!	!LO:SIC:v:t=custos a	!	!
.	.	.	.	.	.	.	.	.	.	.	.	1b\	-ſc'e	-ſcie_e-
!	!	!	!	!	!	!	!	!	!	!	!	!LO:LB:g=original	!	!
=18-	=18-	=18-	=18-	=18-	=18-	=18-	=18-	=18-	=18-	=18-	=18-	=18-	=18-	=18-
*	*	*	*	*	*	*	*	*	*	*	*	*xywh-#672:4695,2220,3384,720	*	*
.	.	.	1A	-tre-	-ſtre-	1cny	-tre-	-ſtre-	1e	-tre-	-ſtre-	.	.	.
.	.	.	.	.	.	.	.	.	.	.	.	1a	ſtre-	-ſtre-
.	.	.	1E	-me	-me	1B	-me	-me	1e	-me	-me	.	.	.
.	.	.	.	.	.	.	.	.	.	.	.	2g#X/	-me	-me
=19-	=19-	=19-	=19-	=19-	=19-	=19-	=19-	=19-	=19-	=19-	=19-	=19-	=19-	=19-
0r	.	.	4r	.	.	4r	.	.	4r	.	.	4r	.	.
.	.	.	4.A/	Piac-	pia-	4.c/	Piac-	pia-	4.e/	Piac-	pia-	4.a/	Piac-	pia-
.	.	.	8A/	-cia-	-cia-	8c/	-cia-	-cia-	8e/	-cia-	-cia-	8a/	-cia-	-cia-
.	.	.	4G/	-ti an-	-ti_an-	4d\	-ti an-	-ti_an-	4g\	-ti an-	-ti_an-	4b/	-ti an-	-ti_an-
!	!	!	!LO:SIC:v:t=custos A	!	!	!	!	!	!	!	!	!	!	!
.	.	.	4c/	-cor	-cor	4e\	-cor	-cor	4g\	-cor	-cor	4cc\	-cor	-cor
!	!	!	!LO:LB:g=original	!	!	!	!	!	!	!	!	!	!	!
*	*	*	*xywh-#368:4754,2320,3266,631	*	*	*	*	*	*	*	*	*	*	*
.	.	.	4A/	gra-	gra-	4a\	gra-	gra-	4cc\	gra-	gra-	4ee\	gra-	gra-
.	.	.	2e\	-di-	-di-	2g#X\	-di-	-di-	2b\	-di-	-di-	2ee\	-di-	-di-
=20-	=20-	=20-	=20-	=20-	=20-	=20-	=20-	=20-	=20-	=20-	=20-	=20-	=20-	=20-
4r	.	.	4A/	-re	-re	4a\	-re	-re	2cc\	-re	-re	4ee\	-re	-re
*	*	*	*	*ij	*ij	*	*ij	*ij	*	*	*	*	*ij	*ij
4.A\	Piac-	pia-	4.c/	Piac-	pia-	4.e\	Piac-	pia-	.	.	.	4.a/	Piac-	pia-
.	.	.	.	.	.	.	.	.	2r	.	.	.	.	.
8A\	-cia-	-cia-	8c/	-cia-	-cia-	8e\	-cia-	-cia-	.	.	.	8a/	-cia-	-cia-
4G\	-ti an-	-ti_an-	4d\	-ti an-	-ti_an-	4gny\	-ti an-	-ti_an-	.	.	.	4b/	-ti an-	-ti_an-
4c\	-cor	-cor	4e\	-cor	-cor	4g\	-cor	-cor	1r	.	.	4cc\	-cor	-cor
4F/	gra-	gra-	4f\	gra-	gra-	4a\	gra-	gra-	.	.	.	4cc\	gra-	gra-
2G\	-di-	-di-	2d\	-di-	-di-	2g\	-di-	-di-	.	.	.	2b/	-di-	-di-
=21-	=21-	=21-	=21-	=21-	=21-	=21-	=21-	=21-	=21-	=21-	=21-	=21-	=21-	=21-
!LO:SIC:v:t=custos c	!	!	!	!	!	!	!	!	!	!	!	!	!	!
2C/	-re	-re	1e	-re	-re	2g\	-re	-re	2r	.	.	2cc\	-re	-re
*	*	*	*	*Xij	*Xij	*	*Xij	*Xij	*	*	*	*	*Xij	*Xij
!LO:LB:g=original	!	!	!	!	!	!	!	!	!	!	!	!	!	!
*xywh-#216:4655,2350,3298,708	*	*	*	*	*	*	*	*	*	*	*	*	*	*
1c	E	e	.	.	.	1e	E	e	1cc	E	e	1gny	E	e
.	.	.	1r	.	.	.	.	.	.	.	.	.	.	.
2F/	pie-	pie-	.	.	.	2fny\	pie-	pie-	2cc\	pie-	pie-	2a/	pie-	pie-
=22-	=22-	=22-	=22-	=22-	=22-	=22-	=22-	=22-	=22-	=22-	=22-	=22-	=22-	=22-
!	!	!	!	!	!	!LO:SIC:v:t=custos c	!	!	!	!	!	!LO:SIC:v:t=custos a	!	!
1B-X	-to-	-to-	1r	.	.	1d	-to-	-to-	1f	-to-	-to-	1b-X	-to-	-to-
!	!	!	!	!	!	!LO:LB:g=original	!	!	!	!	!	!LO:LB:g=original	!	!
*	*	*	*	*	*	*xywh-#64:4507,2872,3356,751	*	*	*	*	*	*xywh-#672:4683,2844,3492,612	*	*
2F/	-ſo	-ſo	4r	.	.	2c/	-ſo	-ſo	2f\	-ſo	-ſo	2a/	-ſo	-ſo
.	.	.	4c/	ri-	ri-	.	.	.	.	.	.	.	.	.
2D/	ri-	ri-	1f\	-guar-	-sguar-	2r	.	.	2a\	ri-	ri-	1dd\	ri-	ri-
=23-	=23-	=23-	=23-	=23-	=23-	=23-	=23-	=23-	=23-	=23-	=23-	=23-	=23-	=23-
1A	-guar-	-sguar-	.	.	.	2r	.	.	1.a	-guar-	-sguar-	.	.	.
.	.	.	1e	-d'al	-da_al	2A/	ri-	ri-	.	.	.	1cc	-guar-	-sguar-
1E	-d'al	-da_al	.	.	.	1e	-guard'	-sguar-	.	.	.	.	.	.
.	.	.	4d\	mio	mio	.	.	.	2g\	-d'al	-da_al	2bny/	-d'al	-da_al
.	.	.	4c/	fal-	fal-	.	.	.	.	.	.	.	.	.
=24-	=24-	=24-	=24-	=24-	=24-	=24-	=24-	=24-	=24-	=24-	=24-	=24-	=24-	=24-
!	!	!	!	!	!	!	!	!	!LO:SIC:v:t=custos a	!	!	!	!	!
1E	mio	mio	4B/	-li-	-li-	1e	al	-da_al	4g#X\	mio	mio	4b/	mio	mio
!	!	!	!	!	!	!	!	!	!LO:LB:g=original	!	!	!	!	!
*	*	*	*	*	*	*	*	*	*xywh-#520:4645,2841,3305,680	*	*	*	*	*
.	.	.	2A/	.	.	.	.	.	4a\	fal-	fal-	4cc\	fal-	fal-
!	!	!	!	!	!	!	!	!	!LO:N:acc=#	!	!	!	!	!
!	!	!	!	!	!	!	!	!	!LO:SIC:s=2b	!	!	!	!	!
.	.	.	.	.	.	.	.	.	2bn\	-li-	-li-	2.ee\	-li-	-li-
.	.	.	4G#X/	-re	-re	.	.	.	.	.	.	.	.	.
1F	fal-	fal-	4r	.	.	4c/	mio	mio	0a	-re	-re	.	.	.
!	!	!	!LO:SIC:v:t=custos f	!	!	!	!	!	!	!	!	!	!	!
.	.	.	4A/	al	al	2f\	fal-	fal-	.	.	.	4dd\	.	.
!	!	!	!LO:LB:g=original	!	!	!	!	!	!	!	!	!	!	!
*	*	*	*xywh-#368:4754,2864,3321,686	*	*	*	*	*	*	*	*	*	*	*
.	.	.	4f\	mio	mio	.	.	.	.	.	.	1dd\	.	.
.	.	.	4f\	fal-	fal-	2a\	-li-	-li-	.	.	.	.	.	.
=25-	=25-	=25-	=25-	=25-	=25-	=25-	=25-	=25-	=25-	=25-	=25-	=25-	=25-	=25-
1A	-li-	-li-	2e\	-li-	-li-	.	.	.	.	.	.	.	.	.
!	!	!	!	!	!	!LO:SIC:s=8gL	!	!	!	!	!	!	!	!
.	.	.	.	.	.	8g\	.	.	.	.	.	.	.	.
!	!	!	!	!	!	!LO:SIC:s=8fJ	!	!	!	!	!	!	!	!
.	.	.	.	.	.	8f\	.	.	.	.	.	.	.	.
.	.	.	2A/	-re	-re	2e\	.	.	.	.	.	2cc#X\	-re	-re
2D/	-re	-re	4r	.	.	4d\	-re	-re	4r	.	.	4r	.	.
.	.	.	4.d\	Piac-	pia-	4.f\	Piac-	pia-	4.a\	Piac-	pia-	4.dd\	Piac-	pia-
2r	.	.	.	.	.	.	.	.	.	.	.	.	.	.
.	.	.	8d\	-cia-	-cia-	8f\	-cia-	-cia-	8a\	-cia-	-cia-	8dd\	-cia-	-cia-
.	.	.	4c/	-ti an-	-ti_an-	4g\	-ti an-	-ti_an-	4cc\	-ti an-	-ti_an-	4ee\	-ti an-	-ti_an-
=26-	=26-	=26-	=26-	=26-	=26-	=26-	=26-	=26-	=26-	=26-	=26-	=26-	=26-	=26-
1r	.	.	4f\	-cor	-cor	4a\	-cor	-cor	4cc\	-cor	-cor	4ff\	-cor	-cor
.	.	.	4d\	gra-	gra-	4a\	gra-	gra-	4dd\	gra-	gra-	4ff\	gra-	gra-
.	.	.	2e\	-di-	-di-	2g#X\	-di-	-di-	2bny\	-di-	-di-	2ee\	-di-	-di-
4r	.	.	4A/	-re	-re	4a\	-re	-re	2cc\	-re	-re	4ee\	-re	-re
*	*	*	*	*ij	*ij	*	*ij	*ij	*	*	*	*	*ij	*ij
4.A\	Piac-	pia-	4.c/	Piac-	pia-	4.e\	Piac-	pia-	.	.	.	4.a/	Piac-	pia-
.	.	.	.	.	.	.	.	.	2r	.	.	.	.	.
!	!	!	!	!	!	!LO:SIC:v:t=custos g	!	!	!	!	!	!LO:SIC:v:t=custos b	!	!
8A\	-cia-	-cia-	8c/	-cia-	-cia-	8e\	-cia-	-cia-	.	.	.	8a/	-cia-	-cia-
!	!	!	!	!	!	!LO:LB:g=original	!	!	!	!	!	!LO:LB:g=original	!	!
!	!	!	!	!	!	!LO:SIC:s=4gi	!	!	!	!	!	!	!	!
*	*	*	*	*	*	*xywh-#64:4507,3441,3392,690	*	*	*	*	*	*xywh-#672:4707,3300,3420,732	*	*
4G\	-ti an-	-ti_an-	4d\	-ti an-	-ti_an-	4gny\	-ti an-	-ti_an-	.	.	.	4b/	-ti an-	-ti_an-
=27-	=27-	=27-	=27-	=27-	=27-	=27-	=27-	=27-	=27-	=27-	=27-	=27-	=27-	=27-
4c\	-cor	-cor	4e\	-cor	-cor	4g\	-cor	-cor	1r	.	.	4ccny\	-cor	-cor
4F/	gra-	gra-	4f\	gra-	gra-	4a\	gra-	gra-	.	.	.	4cc\	gra-	gra-
2G\	-di-	-di-	2d\	-di-	-di-	2g\	-di-	-di-	.	.	.	2b/	-di-	-di-
!LO:SIC:v:t=custos c	!	!	!	!	!	!	!	!	!	!	!	!	!	!
2C/	-re	-re	1e	-re	-re	2g\	-re	-re	2r	.	.	2cc\	-re	-re
*	*	*	*	*Xij	*Xij	*	*Xij	*Xij	*	*	*	*	*Xij	*Xij
!LO:LB:g=original	!	!	!	!	!	!	!	!	!	!	!	!	!	!
*xywh-#216:4594,2927,3368,687	*	*	*	*	*	*	*	*	*	*	*	*	*	*
1c\	E	e	.	.	.	1e\	E	e	1cc\	E	e	1g/	E	e
=28-	=28-	=28-	=28-	=28-	=28-	=28-	=28-	=28-	=28-	=28-	=28-	=28-	=28-	=28-
.	.	.	1r	.	.	.	.	.	.	.	.	.	.	.
2F/	pie-	pie-	.	.	.	2f\	pie-	pie-	2cc\	pie-	pie-	2a/	pie-	pie-
1B-X	-to-	-to-	1r	.	.	1d	-to-	-to-	1f	-to-	-to-	1b-X	-to-	-to-
=29-	=29-	=29-	=29-	=29-	=29-	=29-	=29-	=29-	=29-	=29-	=29-	=29-	=29-	=29-
2F/	-ſo	-ſo	4r	.	.	2c/	-ſo	-ſo	2f\	-ſo	-ſo	2a/	-ſo	-ſo
!	!	!	!LO:SIC:v:t=custos f	!	!	!	!	!	!	!	!	!	!	!
.	.	.	4c/	ri-	ri-	.	.	.	.	.	.	.	.	.
!	!	!	!LO:LB:g=original	!	!	!	!	!	!	!	!	!	!	!
*	*	*	*xywh-#368:4754,3419,3256,664	*	*	*	*	*	*	*	*	*	*	*
2D/	ri-	ri-	1f	-ſguar-	-ſguar-	2r	.	.	2a\	ri-	ri-	1dd	riſ-	ri-
1A	-guar-	-sguar-	.	.	.	2r	.	.	1.a	-guar-	-sguar-	.	.	.
.	.	.	1e\	-d'al	-da_al	2A/	r-	ri-	.	.	.	1cc\	-guar-	-ſguar-
=30-	=30-	=30-	=30-	=30-	=30-	=30-	=30-	=30-	=30-	=30-	=30-	=30-	=30-	=30-
1E	-d'al	-da_al	.	.	.	1e	-guar-	-sguar-	.	.	.	.	.	.
!	!	!	!	!	!	!	!	!	!LO:SIC:v:t=custos g	!	!	!	!	!
.	.	.	4d\	mio	mio	.	.	.	2gny\	-d'al	-da_al	2bny/	-d'al	-da_al
.	.	.	4c/	fal-	fal-	.	.	.	.	.	.	.	.	.
!	!	!	!	!	!	!	!	!	!LO:LB:g=original	!	!	!	!	!
*	*	*	*	*	*	*	*	*	*xywh-#520:4645,3359,3380,723	*	*	*	*	*
1E	mio	mio	4B/	-li-	-li-	1e	-d'al	-da_al	4g#X\	mio	mio	4b/	mio	mio
.	.	.	2A/	.	.	.	.	.	4a\	fal-	fal-	4cc\	fal-	fal-
!	!	!	!	!	!	!	!	!	!LO:N:acc=#	!	!	!	!	!
!	!	!	!	!	!	!	!	!	!LO:SIC:s=2b	!	!	!	!	!
.	.	.	.	.	.	.	.	.	2bn\	-li-	-li-	2.ee\	-li-	-li-
.	.	.	4G#X/	-re	-re	.	.	.	.	.	.	.	.	.
=31-	=31-	=31-	=31-	=31-	=31-	=31-	=31-	=31-	=31-	=31-	=31-	=31-	=31-	=31-
1F	fal-	fal-	4r	.	.	4c/	mio	mio	[0al	-re.	-re.	.	.	.
.	.	.	4A/	al	al	2f\	fal-	fal-	.	.	.	4dd\	.	.
.	.	.	4f\	mio	mio	.	.	.	.	.	.	2.dd\	.	.
.	.	.	4f\	fal-	fal-	2a\	-li-	-li-	.	.	.	.	.	.
1A	-li-	-li-	1e	-li-	-li-	.	.	.	.	.	.	.	.	.
!	!	!	!	!	!	!LO:SIC:s=8gL	!	!	!	!	!	!LO:SIC:s=8ccL	!	!
.	.	.	.	.	.	8gny\	.	.	.	.	.	8cc\	.	.
!	!	!	!	!	!	!LO:SIC:s=8fJ	!	!	!	!	!	!LO:SIC:s=8bJ	!	!
.	.	.	.	.	.	8f\	.	.	.	.	.	8b\	.	.
.	.	.	.	.	.	2e\	.	.	.	.	.	2cc#X\	.	.
=32-	=32-	=32-	=32-	=32-	=32-	=32-	=32-	=32-	=32-	=32-	=32-	=32-	=32-	=32-
0Dl	-re.	-re.	0dl	-re.	-re.	0f#Xl	-re.	-re.	0a]	.	.	0ddl	-re.	-re.
==	==	==	==	==	==	==	==	==	==	==	==	==	==	==
*-	*-	*-	*-	*-	*-	*-	*-	*-	*-	*-	*-	*-	*-	*-
!!!system-decoration: [(*)]
!!LO:MO:ori
!!!RDF**kern: l = terminal long
!!LO:MO:mod
!! !!!RDF**kern: i = editorial accidental
!!LO:MO:end
!!!ENC: Andrzej Gręziak
!!!END: 2022-06-29
!!!ENC: Natalia Wrzos
!!!END: 2022-07-16
!!!ENC-modern: Andrzej Kubiczek
!!!END-modern: 2022-08-11
!!!filter-modern: shed -e "s/^custos:/Xcustos:/I" | shed -e "s/TX(.*):t=P:/tx$1:t=P:/LG" | shed -e "s/LO:N:/LO:n:$1/L" | sic -sq | modori -m | autostem -r | tie -s | humtr -p | shed -e "s/-//B"
!!!YEC: Copyright 2022 Narodowy Instytut Fryderyka Chopina (https://polishscores.org)
!!!YEM: License CC-BY-4.0 (https://creativecommons.org/licenses/by/4.0)
!!!IIIF: https://repozytorium.nifc.pl/islandora/object/plgd%3A57883/datastream/IIIF/view
!!!ENC-IIIF: Zuzanna Daniec
!!!END-IIIF: 2022-10-10
